X:1
T:Title
%%score { ( 1 3 ) | ( 2 4 ) }
L:1/8
Q:1/4=81
M:6/8
K:Ab
V:1 treble nm="Grand Piano"
V:3 treble 
V:2 bass 
V:4 bass 
V:1
 [CE][CA][DB] [Ec]2 [Ec] | cBc B [CA]2 | GAB BGE | E[EA]E [Ec]3 | [CE][CA][DB] [Ec][Ec][Ec] | %5
w: Alfred~Holzworth * * * *|||||
 z3 .B3 | EAA ccB |[M:5/8] A-A- A3 |[M:1/8] A/A/ |[M:6/8] [Fd][Fd][Fd] [FA][FA][=EB] | %10
w: |||||
 [Ec]2 e e2 c/B/ | AAA FA[=Dc] | B6 | [CA][Ec][Ec] [CA][Ec][Ec] | z3 .d3 | %15
w: |||||
 [CEA][CEA][CEA] [B,DF][B,DG][G,DE] |[M:5/8] A-A- A3 |] %17
w: ||
V:2
 [A,,G,][A,,E,][A,,E,] [A,,A,]2 [A,,A,] | [E,G,E][E,G,D][E,G,E] [E,G,D] [A,,A,]2 | %2
 [E,B,E][E,CE][E,DE] [E,DE][E,B,E][D,G,] | [C,A,][C,A,][B,,G,] [A,,A,]3 | %4
 [A,,A,][A,,E,][A,,G,] [A,,A,][A,,A,][A,,A,] | [A,,A,][B,,G,][C,A,] [D,A,]2 [D,A,D] | %6
 [E,A,C][E,CE][E,CE] [E,A,E][E,A,E][E,G,D] |[M:5/8][K:treble] [A,C]-[A,C]- [A,C]3 | %8
[M:1/8] [A,C_G]/[A,CG]/ |[M:6/8][K:bass] [D,A,][D,A,][D,A,] [D,D][D,D][D,A,] | %10
 [A,,A,]2[K:treble] [A,CA] [A,CA]2 [A,EA]/[A,DA]/ | [A,CE][K:bass][A,CE][A,CE] [B,=D][B,D][B,,B,] | %12
 .[G,E]3 z3 | [A,,A,][A,,E,][A,,E,] [A,,A,][A,,E,][A,,A,] | [D,A,]2 [D,A,] [B,,B,][C,=A,]D, | %15
 E,D,E, E,E,E, |[M:5/8] z G,F, E,2 |] %17
V:3
 x6 | x6 | x6 | x6 | x6 | [Ec][EB][EA] F-[FA]F | x6 |[M:5/8] x5 |[M:1/8] x |[M:6/8] x6 | x6 | x6 | %12
 z GF EDE/E/ | x6 | [Fc]2 [FB] F-[Fc][B,FB] | x6 |[M:5/8] [A,C]ED C2 |] %17
V:4
 x6 | x6 | x6 | x6 | x6 | x6 | x6 |[M:5/8][K:treble] x5 |[M:1/8] x |[M:6/8][K:bass] x6 | %10
 x2[K:treble] x4 | x[K:bass] x5 | E,-[E,-E][E,-D] [E,-C][E,B,][E,A,C]/[E,G,D]/ | x6 | x6 | x6 | %16
[M:5/8] A,,-A,,- A,,3 |] %17

